X:43
T: Letter From My Darlin'
C: Bill Monroe
S: MandoZine TablEdit Archives
Z: TablEdited by Mike Stangeland for MandoZine
S: LetterFromMyDarlin-G-Monroe.tef
L: 1/8
Q: 350
M: 4/4
K: G
 z2 G2 B2 c2 | "Bill's Kick-off""G"[gd][g/d/][g/d/] [gd][g/d/][g/d/] [gd]b gd |
 "D"c^A G=F DD/C/ ^A,D | "G"G/G/G/G/ GG DC ^A,B, | [B8G8G,8] | [GG,]D D[GG,] [DG,][DG,] [DG,][DG,] |
 "Bill's smokin' mando break""G"[GG,][GG,] [GG,][GG,] [GG,][GG,] [GG,][GG,] |
 [=FG,][EG,] [DG,][=FG,] [EG,][DG,] [=FG,][EG,] |
 [DG,][=FG,] [EG,][DG,] [=FG,][=FG,] [EG,][=FG,] | [D2G,2] [D2G,2] [DG,]B, [DG,][FG,] |
 [GG,]g zg gb gd | c^A G=F DC B,C |
 "D"[=F/C/][^F/D/][F/D/][F/D/] [F/D/][F/D/][F/D/][F/D/] [F/D/][F/D/][F/D/][F/D/] [F/D/][F/D/][F/D/][F/D/] |
 "D7"[F/C/][F/C/][F/C/][F/C/] [F/C/][F/C/][F/C/][F/C/] CD CD |
 "G"B,G,/G,/ G,G, G,B, DF | [GG,]g gg gb gd | [g2c2D2G,2] GB2G ^AB | [G2G,2] [d2D2G,2] [dDG,][GG,] B[GG,] | [GG,]g zg gb gd |
 "D"c^A G=F DC ^A,D | "G"[G/G,/][G/G,/][G/G,/][G/G,/] ^CD ^CD ^CD | [D2G,2] [D2G,2] [GG,]G, B,D | [G8G,8] |
